X:1
T:Aldershot, 87.87.87 D
T:Aldershot, 87.87.87 D
T:Charles Davis Tillman, 1903
T:Public Domain Courtesy of the Cyber Hymnal™
C:Charles Davis Tillman, 1903
Z:Public Domain
Z:Courtesy of the Cyber Hymnal™
%%score ( 1 2 ) ( 3 4 )
L:1/8
Q:1/4=105
M:4/4
K:Bb
V:1 treble 
V:2 treble 
V:3 bass 
V:4 bass 
V:1
 [DF][DF] | [DF]2 [DB]2 [DB]3 [Ec] | [EB]2 [EA]2 z2 [EG][EF] | [CA]2 [EG]2 [EF]2 [Ec]2 | %4
 [DB]6 [DF][DF] | [DF]2 [DB]2 [DB]3 [Ec] | [EB]2 [EA]2 z2 [EG][EF] | [CA]2 [EG]2 [EF]2 [Ec]2 | %8
 [DB]6 [Fd][Ec] | [DB]2 [DF]2 [DB]2 [Fd]2 | [Fd]2 [Fc]2 z2 [Ge][Fd] | [Ec]2 [D=B]2 [Ec]2 [=E^c]2 | %12
 [Fd]4 [Ff]3 [Fd] | [DB]2 [DF]2 [DB]3 [FA] | [FA]2 [EG]4 [^CG][CG] | [DF]2 [DB]2 [EB]3 [Ec] | %16
 [DB]4 !fermata![Fd]3 [Ec] | [Ec]2 [DB]2 [DB]3 [Ec] | [EB]2 [EA]4 [EG]F | [Fe]2 [Ge]2 [Ae]2 [Ge]2 | %20
 [Fd]4 !fermata![Ff]3 [Fd] | [DB]2 [DF]2 [DB]3 [FA] | [FA]2 [EG]4 [^CB][CB] | %23
 [DB] [Fd]2 [DF] !fermata![Ec]3 [DB] | [DB]6 |] %25
V:2
 x2 | x8 | x8 | x8 | x8 | x8 | x8 | x8 | x8 | x8 | x8 | x8 | x8 | x8 | x8 | x8 | x8 | x8 | x7 F | %19
 x8 | x8 | x8 | x8 | x8 | x6 |] %25
V:3
 [B,,B,][B,,B,] | [B,,B,]2 [B,,F,]2 [B,,F,]3 [B,,F,] | [C,F,]2 [C,F,]2 z2 [C,F,][C,F,] | %3
 F,2 [F,A,]2 [F,A,]2 [F,A,]2 | [B,,B,]6 [B,,B,][B,,B,] | [B,,B,]2 [B,,F,]2 [B,,F,]3 [B,,F,] | %6
 [C,F,]2 [C,F,]2 z2 [C,F,][C,F,] | F,2 [F,A,]2 [F,A,]2 [F,A,]2 | [B,,B,]6 [B,,B,][B,,B,] | %9
 [B,,F,]2 [B,,B,]2 [B,,F,]2 [F,B,]2 | [F,B,]2 [F,A,]2 z2 [F,A,][F,A,] | %11
 [F,A,]2 [F,A,]2 [F,A,]2 [F,A,]2 | [B,,B,]4 [B,,B,]3 [B,,B,] | [B,,F,]2 [B,,B,]2 [B,,F,]3 [D,B,] | %14
 [E,B,]2 [E,B,]4 [=E,B,][E,B,] | [F,B,]2 F,2 F,3 F, | [B,,F,]4 !fermata![B,,B,]3 [B,,B,] | %17
 [B,,B,]2 [B,,F,]2 [B,,F,]3 [B,,F,] | [C,F,]2 [C,F,]4 [C,B,][C,B,] | %19
 [F,A,]2 [F,B,]2 [F,C]2 [F,B,]2 | [B,,B,]4 !fermata![B,,B,]3 [B,,B,] | %21
 [B,,F,]2 [B,,B,]2 [B,,F,]3 [D,B,] | [E,B,]2 [E,B,]4 [=E,G,][E,G,] | %23
 [F,B,]3 [F,B,] !fermata![F,A,]3 [B,,F,] | [B,,F,]6 |] %25
V:4
 x2 | x8 | x8 | F,2 x6 | x8 | x8 | x8 | F,2 x6 | x8 | x8 | x8 | x8 | x8 | x8 | x8 | x2 F,2 F,3 F, | %16
 x8 | x8 | x8 | x8 | x8 | x8 | x8 | x8 | x6 |] %25

